svgs/duotone/compress.svg

<svg xmlns="http://www.w3.org/2000/svg" viewBox="0 0 448 512"><!-- Font Awesome Pro 6.0.0-alpha2 by @fontawesome - https://fontawesome.com License - https://fontawesome.com/license (Commercial License) --><defs><style>.fa-secondary{opacity:.4}</style></defs><path d="M128 320H32C14.312 320 0 334.312 0 352S14.312 384 32 384H96V448C96 465.688 110.312 480 128 480S160 465.688 160 448V352C160 334.312 145.688 320 128 320ZM416 128H352V64C352 46.312 337.688 32 320 32S288 46.312 288 64V160C288 177.688 302.312 192 320 192H416C433.688 192 448 177.688 448 160S433.688 128 416 128Z" class="fa-secondary"/><path d="M416 320H320C302.312 320 288 334.312 288 352V448C288 465.688 302.312 480 320 480S352 465.688 352 448V384H416C433.688 384 448 369.688 448 352S433.688 320 416 320ZM128 32C110.312 32 96 46.312 96 64V128H32C14.312 128 0 142.312 0 160S14.312 192 32 192H128C145.688 192 160 177.688 160 160V64C160 46.312 145.688 32 128 32Z" class="fa-primary"/></svg>

<svg xmlns="http://www.w3.org/2000/svg" viewBox="0 0 448 512"><!--! Font Awesome Pro 6.0.0-alpha3 by @fontawesome - https://fontawesome.com License - https://fontawesome.com/license (Commercial License) --><defs><style>.fa-secondary{opacity:.4}</style></defs><path class="fa-primary" d="M416 320h-96c-17.69 0-32 14.31-32 32v96c0 17.69 14.31 32 32 32s32-14.31 32-32v-64h64c17.69 0 32-14.31 32-32S433.7 320 416 320zM128 32C110.3 32 96 46.31 96 64v64H32C14.31 128 0 142.3 0 160s14.31 32 32 32h96c17.69 0 32-14.31 32-32V64C160 46.31 145.7 32 128 32z"/><path class="fa-secondary" d="M128 320H32c-17.69 0-32 14.31-32 32s14.31 32 32 32h64v64c0 17.69 14.31 32 32 32s32-14.31 32-32v-96C160 334.3 145.7 320 128 320zM416 128h-64V64c0-17.69-14.31-32-32-32s-32 14.31-32 32v96c0 17.69 14.31 32 32 32h96c17.69 0 32-14.31 32-32S433.7 128 416 128z"/></svg>
